X:2640
T:Captn. Mackintosh. JC.023
M:2/4
L:1/8
Q:240
S:John Clare,Poet,Helpston. (1793-1864)
R:Misc.
A:Northamptonshire
N:
Z:Phil Headford
K:A
E|A>BA>B|GEEE|A>BAc|e3c|fddB|eccA|BcdB|AGFE|!
A>BA>B|GEEE|A>BAc|e3c|fddB|eccA|dBBG|A3:|!
|:A|e>fe>f|dBBc|d>ed>e|cAAB|EA/B/ cA|EB/c/ dB|ecBA|AGFE|!
A>BA>B|GEEE|A>Bc>d|e3c|fddB|dccA|dBAG|A3:|]


